svg/fluentui-system-icons/ic_fluent_comment_off_20_filled.svg

<svg width="20" height="20" viewBox="0 0 20 20" fill="none" xmlns="http://www.w3.org/2000/svg">
<path d="M2.85355 2.14645C2.65829 1.95118 2.34171 1.95118 2.14645 2.14645C1.95118 2.34171 1.95118 2.65829 2.14645 2.85355L2.90934 3.61645C2.35272 4.08703 2 4.78577 2 5.56581V12.2764C2 13.6935 3.16406 14.8422 4.6 14.8422H5.19937L5.2 17.0132C5.2 17.2262 5.26989 17.4335 5.39921 17.6041C5.73 18.0406 6.35668 18.1298 6.79895 17.8033L10.81 14.8422H14.1351L17.1464 17.8536C17.3417 18.0488 17.6583 18.0488 17.8536 17.8536C18.0488 17.6583 18.0488 17.3417 17.8536 17.1464L15.5454 14.8383C15.5454 14.8383 15.5454 14.8383 15.5454 14.8383L3.8235 3.11637C3.82351 3.11636 3.8235 3.11637 3.8235 3.11637L2.85355 2.14645ZM18 12.2764C18 13.2468 17.4541 14.0914 16.6488 14.5274L5.12134 2.99999H15.4C16.8359 2.99999 18 4.14874 18 5.56581V12.2764Z" fill="#212121"/>
</svg>

<svg xmlns="http://www.w3.org/2000/svg" width="20" height="20"><path d="M2.854 2.146a.5.5 0 1 0-.708.708l.763.762A2.55 2.55 0 0 0 2 5.566v6.71c0 1.418 1.164 2.566 2.6 2.566h.6v2.171c0 .213.07.42.2.591.33.437.957.526 1.399.2l4.011-2.962h3.325l3.011 3.012a.5.5 0 0 0 .708-.708l-2.309-2.308L3.823 3.116l-.97-.97ZM18 12.276a2.56 2.56 0 0 1-1.351 2.251L5.12 3H15.4C16.836 3 18 4.149 18 5.566v6.71Z"/></svg>
